public/sprite/theme.svg

<svg width="0" height="0" class="hidden"><symbol viewBox="0 0 24 24" fill="none" xmlns="http://www.w3.org/2000/svg" id="moon"><g id=" various / moon"><path id="icon" fill-rule="evenodd" clip-rule="evenodd" d="M13 9C13 7.02543 13.8205 5.18477 15.2398 3.86765L16.7174 2.49647L14.7317 2.14956C14.1634 2.05029 13.5847 2 13 2C7.47715 2 3 6.47715 3 12C3 17.5228 7.47715 22 13 22C16.3854 22 19.4843 20.3038 21.3266 17.5396L22.4432 15.8643L20.4336 15.9868C20.2898 15.9956 20.1452 16 20 16C16.134 16 13 12.866 13 9ZM13 20C8.58172 20 5 16.4183 5 12C5 7.74791 8.31735 4.27062 12.5051 4.01506C11.5367 5.46848 11 7.19184 11 9C11 13.439 14.2137 17.1274 18.4414 17.8655C16.9878 19.2153 15.061 20 13 20Z" fill="currentColor"></path></g></symbol><symbol viewBox="0 0 24 24" fill="none" xmlns="http://www.w3.org/2000/svg" id="sun"><g id=" various / brightness-high"><path id="icon" fill-rule="evenodd" clip-rule="evenodd" d="M13 5.07089C12.6734 5.02417 12.3395 5 12 5C11.6605 5 11.3266 5.02417 11 5.07089V1.04484C11.3294 1.01516 11.6629 1 12 1C12.3371 1 12.6706 1.01516 13 1.04484V5.07089ZM7 12C7 14.7614 9.23858 17 12 17C14.7614 17 17 14.7614 17 12C17 9.23858 14.7614 7 12 7C9.23858 7 7 9.23858 7 12ZM15 12C15 13.6569 13.6569 15 12 15C10.3431 15 9 13.6569 9 12C9 10.3431 10.3431 9 12 9C13.6569 9 15 10.3431 15 12ZM13 22.9552V18.9291C12.6734 18.9758 12.3395 19 12 19C11.6605 19 11.3266 18.9758 11 18.9291V22.9552C11.3294 22.9848 11.6629 23 12 23C12.3371 23 12.6706 22.9848 13 22.9552ZM18.9291 11H22.9552C22.9848 11.3294 23 11.6629 23 12C23 12.3371 22.9848 12.6706 22.9552 13H18.9291C18.9758 12.6734 19 12.3395 19 12C19 11.6605 18.9758 11.3266 18.9291 11ZM5 12C5 11.6605 5.02417 11.3266 5.07089 11H1.04484C1.01516 11.3294 1 11.6629 1 12C1 12.3371 1.01516 12.6706 1.04484 13H5.07089C5.02417 12.6734 5 12.3395 5 12ZM16.1922 6.39362L19.0391 3.54673C19.5521 3.9744 20.0256 4.44791 20.4533 4.96094L17.6064 7.80783C17.2049 7.27173 16.7283 6.79513 16.1922 6.39362ZM3.54673 4.96094L6.39362 7.80783C6.79513 7.27173 7.27173 6.79513 7.80783 6.39362L4.96094 3.54673C4.44791 3.9744 3.9744 4.44791 3.54673 4.96094ZM17.6064 16.1922L20.4533 19.0391C20.0256 19.5521 19.5521 20.0256 19.0391 20.4533L16.1922 17.6064C16.7283 17.2049 17.2049 16.7283 17.6064 16.1922ZM4.96094 20.4533L7.80783 17.6064C7.27173 17.2049 6.79513 16.7283 6.39362 16.1922L3.54673 19.0391C3.9744 19.5521 4.44791 20.0256 4.96094 20.4533Z" fill="currentColor"></path></g></symbol></svg>

<svg width="0" height="0"><symbol xmlns="http://www.w3.org/2000/svg" id="moon" fill="none" viewBox="0 0 24 24"><g id="various / moon"><path id="icon" fill="currentColor" fill-rule="evenodd" d="M13 9c0-1.975.82-3.815 2.24-5.132l1.477-1.372-1.985-.346A9.993 9.993 0 0 0 13 2C7.477 2 3 6.477 3 12s4.477 10 10 10a9.99 9.99 0 0 0 8.327-4.46l1.116-1.676-2.01.123A7 7 0 0 1 13 9Zm0 11a8 8 0 0 1-.495-15.985A8.97 8.97 0 0 0 11 9c0 4.439 3.214 8.127 7.441 8.866A7.98 7.98 0 0 1 13 20Z" clip-rule="evenodd"/></g></symbol><symbol xmlns="http://www.w3.org/2000/svg" id="sun" fill="none" viewBox="0 0 24 24"><g id="various / brightness-high"><path fill="currentColor" fill-rule="evenodd" d="M13 5.07a7.06 7.06 0 0 0-2 0V1.046a11.14 11.14 0 0 1 2 0V5.07ZM7 12a5 5 0 1 0 10 0 5 5 0 0 0-10 0Zm8 0a3 3 0 1 1-6 0 3 3 0 0 1 6 0Zm-2 10.955V18.93a7.062 7.062 0 0 1-2 0v4.026a11.17 11.17 0 0 0 2 0ZM18.93 11h4.025a11.17 11.17 0 0 1 0 2H18.93a7.062 7.062 0 0 0 0-2ZM5 12c0-.34.024-.673.07-1H1.046a11.14 11.14 0 0 0 0 2H5.07A7.06 7.06 0 0 1 5 12Zm11.192-5.606 2.847-2.847c.513.427.987.9 1.414 1.414l-2.847 2.847a7.04 7.04 0 0 0-1.414-1.414ZM3.547 4.96l2.847 2.847a7.04 7.04 0 0 1 1.414-1.414L4.96 3.547c-.513.427-.987.9-1.414 1.414Zm14.06 11.231 2.846 2.847c-.427.513-.9.987-1.414 1.414l-2.847-2.847a7.04 7.04 0 0 0 1.414-1.414ZM4.96 20.453l2.847-2.847a7.04 7.04 0 0 1-1.414-1.414L3.547 19.04c.427.513.9.987 1.414 1.414Z" clip-rule="evenodd"/></g></symbol></svg>
